archdroid-icon-theme/Archdroid-Red/places/scalable/folder-collection-ubuntu-alt.svg

<svg fill="#F44336" height="48" viewBox="0 0 48 48" width="48" xmlns="http://www.w3.org/2000/svg"><g fill="#F44336"><path d="m8 12h-4v28c0 2.21 1.79 4 4 4h28v-4h-28z"/><path d="m16 4c-2.21 0-4 1.79-4 4v24c0 2.21 1.79 4 4 4h24c2.21 0 4-1.79 4-4v-24c0-2.21-1.79-4-4-4zm12 6c5.522869 0 10 4.47699 10 10 0 5.522587-4.477131 10-10 10-5.522868 0-10-4.477343-10-10 0-5.52301 4.477131-10 10-10zm3.564453 2.787109c-.516185-.06405-1.043771.177302-1.320312.65625-.368582.638315-.150105 1.455708.488281 1.824219.638526.368793 1.455708.150034 1.824219-.488281.368723-.638598.148362-1.455496-.490235-1.824219-.159614-.09214-.329891-.14662-.501953-.167969zm-3.564453 1.41211c-.923288 0-1.795473.21774-2.570312.601562l.927734 1.66211c.499321-.232339 1.055486-.363282 1.642578-.363282 2.037429 0 3.709577 1.562767 3.884766 3.554688l1.902343-.027344c-.09363-1.470661-.737327-2.791087-1.724609-3.761719-.507576.19177-1.092809.161805-1.599609-.130859-.507435-.292946-.826857-.787927-.914063-1.324219-.493324-.136525-1.011971-.210937-1.548828-.210937zm-3.216797.974609c-1.168398.780625-2.037405 1.975344-2.398437 3.373047.42171.343747.689453.866315.689453 1.453125 0 .586669-.269626 1.10945-.691407 1.453125.360964 1.397845 1.231992 2.592492 2.400391 3.373047l.974609-1.634766c-1.002662-.705554-1.658203-1.871737-1.658203-3.191406 0-1.319457.655541-2.48571 1.658203-3.191406zm-3.583984 3.492188c-.737516 0-1.333985.596468-1.333985 1.333984 0 .737234.596469 1.335937 1.333985 1.335938.737234 0 1.335937-.598704 1.335937-1.335938 0-.737587-.598633-1.333984-1.335937-1.333984zm10.685547 1.679687c-.175048 1.992204-1.847337 3.554688-3.884766 3.554688-.587163 0-1.143187-.130942-1.642578-.363282l-.927734 1.66211c.774909.38368 1.647023.601562 2.570312.601562.536856 0 1.055434-.07442 1.548828-.210937.08721-.536292.406558-1.031061.914063-1.324219.5068-.292523 1.092033-.320746 1.599609-.128906.987212-.970702 1.631123-2.293014 1.724609-3.763672zm-.650391 4.21875c-.172056.02135-.342357.07582-.501953.167969-.638597.368652-.856792 1.185903-.488281 1.824219.368723.638597 1.185621.856933 1.824218.488281.638386-.368582.856934-1.185693.488282-1.824219-.276437-.478736-.806098-.720289-1.322266-.65625z"/></g></svg>

<svg fill="#F44336" height="48" version="1.1" viewBox="0 0 48 48" width="48" xmlns="http://www.w3.org/2000/svg"><path d="m8 12l-4 0 0 28c0 2.21 1.79 4 4 4l28 0 0-4-28 0 0-28z"/><path d="M16 4C13.79 4 12 5.79 12 8L12 32C12 34.21 13.79 36 16 36L40 36C42.21 36 44 34.21 44 32L44 8C44 5.79 42.21 4 40 4L16 4zM28 10C33.522869 10 38 14.47699 38 20 38 25.522587 33.522869 30 28 30 22.477132 30 18 25.522657 18 20 18 14.47699 22.477131 10 28 10zM31.564453 12.787109C31.048268 12.723059 30.520682 12.964411 30.244141 13.443359 29.875559 14.081674 30.094036 14.899067 30.732422 15.267578 31.370948 15.636371 32.18813 15.417612 32.556641 14.779297 32.925364 14.140699 32.705003 13.323801 32.066406 12.955078 31.906792 12.862938 31.736515 12.808458 31.564453 12.787109zM28 14.199219C27.076712 14.199219 26.204527 14.416959 25.429688 14.800781L26.357422 16.462891C26.856743 16.230552 27.412908 16.099609 28 16.099609 30.037429 16.099609 31.709577 17.662376 31.884766 19.654297L33.787109 19.626953C33.693479 18.156292 33.049782 16.835866 32.0625 15.865234 31.554924 16.057004 30.969691 16.027039 30.462891 15.734375 29.955456 15.441429 29.636034 14.946448 29.548828 14.410156 29.055504 14.273631 28.536857 14.199219 28 14.199219zM24.783203 15.173828C23.614805 15.954453 22.745798 17.149172 22.384766 18.546875 22.806476 18.890622 23.074219 19.41319 23.074219 20 23.074219 20.586669 22.804593 21.10945 22.382812 21.453125 22.743776 22.85097 23.614804 24.045617 24.783203 24.826172L25.757812 23.191406C24.75515 22.485852 24.099609 21.319669 24.099609 20 24.099609 18.680543 24.75515 17.51429 25.757812 16.808594L24.783203 15.173828zM21.199219 18.666016C20.461703 18.666016 19.865234 19.262484 19.865234 20 19.865234 20.737234 20.461703 21.335937 21.199219 21.335938 21.936453 21.335938 22.535156 20.737234 22.535156 20 22.535156 19.262413 21.936523 18.666016 21.199219 18.666016zM31.884766 20.345703C31.709718 22.337907 30.037429 23.900391 28 23.900391 27.412837 23.900391 26.856813 23.769449 26.357422 23.537109L25.429688 25.199219C26.204597 25.582899 27.076711 25.800781 28 25.800781 28.536856 25.800781 29.055434 25.726361 29.548828 25.589844 29.636038 25.053552 29.955386 24.558783 30.462891 24.265625 30.969691 23.973102 31.554924 23.944879 32.0625 24.136719 33.049712 23.166017 33.693623 21.843705 33.787109 20.373047L31.884766 20.345703zM31.234375 24.564453C31.062319 24.585803 30.892018 24.640273 30.732422 24.732422 30.093825 25.101074 29.87563 25.918325 30.244141 26.556641 30.612864 27.195238 31.429762 27.413574 32.068359 27.044922 32.706745 26.67634 32.925293 25.859229 32.556641 25.220703 32.280204 24.741967 31.750543 24.500414 31.234375 24.564453z"/></svg>
